!!!COM: Louise Reichardt
!!!CNT: Deutsch
!!!TXO: Deutsch
!!!OTL: Durch den Wald
!!!LYR: Brentano
!!!OPR: 
!!!OPS: No opus information available
!!!ONM: No. 14
!!!ENC: Ben Fuhrman
!!!YOR: Louise Reichardt: Songs
!!!YOR: New York, Da Capo Press, 1981
!!!ODT: 1800 - 1826
!!NB: Only vocal melody encoded.
!!NB: First instance of melodic material only encoded.
!!created: 2/18/10 12:45PM
!!proofed and posted: 2/18/10 12:45PM
**kern	**silbe
*clef G2	*
*k[]	*
*M2/4	*
*MM[Lebhaft]	*
{16g	{Durch
16g	den
=1	=1
!! This note is marked as a double-dotted quarter in the score. It has been changed to a quarter tied to a sixteenth in order to make metric sense. -Fuhrman
[4e	Wald
16e]	|
16g	mit
16g	ra-
16g	-schen
=2	=2
8g	Schrit-
8d	-ten,
8r	.
16g	tra-
16g	-ge
=3	=3
8f#	ich
8a	die
(8d	Lau-
16e)	|
16f#	-te
=4	=4
4g}	hin,}
8r	.
{16g	{Freu-
16g	-de
=5	=5
!! Originally a double-dotted quarter. Changed to make metric sense. -Fuhrman
[4e	singt
16e]	|
16g	was
16g	Lied
16g	ge-
=6	=6
8g	lit-
8d	-ten
8r	.
16g	scher-
16g	-es
=7	=7
8cc	Herz
8a	hat
8d	leich-
16e	|
16f#	-ten
=8	=8
8g}	Sinn.}
8r	.
{8.dd	{Durch
16cc	die
=9	=9
(ccq	Bu2s-
8.b)	|
16a	-che
8.g	muss
16fn	ich
=10	=10
8fn	drin-
8e	-gen
8.ee	nie-
16dd	-der
=11	=11
8.dd	zu
16dd	dem
8.dd	Fel-
16f#	-sen
=12	=12
4g}	Born,}
8r	.
{16g	{und
16fn	es
=13	=13
16e	schlin-
16f	|
16g	-gen
16a	|
16b	sich
16cc	|
16dd	mit
16cc	|
=14	=14
16b	Klin-
16a	|
16g#	-gen
16a	|
16gn	in
16f	|
16e	die
16d	|
=15	=15
8.g	Sa-
16c	-ten
8d	Ros'
8B	und
=16	=16
8c}	Dorn.}
8r	.
4r	.
==	==
*-	*-
